static/img/logo-browser-chrome.svg

<svg width="64" height="64" viewBox="0 0 64 64" fill="none" xmlns="http://www.w3.org/2000/svg">
<mask id="mask0" mask-type="alpha" maskUnits="userSpaceOnUse" x="0" y="0" width="64" height="64">
<circle cx="32" cy="32" r="32" fill="#C4C4C4"/>
</mask>
<g mask="url(#mask0)">
<path d="M5.15332 0V39.2421H19.4494L32.0001 17.4316H63.917V0H5.15332ZM5.15332 0V39.2421H19.4494L32.0001 17.4316H63.917V0H5.15332Z" fill="#DB4437"/>
<path d="M0.0830078 63.9996H30.5038L44.6337 49.8522V39.2417H19.4492L0.0830078 5.97852V63.9996ZM0.0830078 63.9996H30.5038L44.6337 49.8522V39.2417H19.4492L0.0830078 5.97852V63.9996Z" fill="#0F9D58"/>
<path d="M32.0001 17.4314L44.5508 39.2419L30.4209 63.9998H63.917V17.4314H32.0001ZM36.2391 53.8103L30.4209 63.9998H63.917V17.4314H32.0001L44.5508 39.2419L36.2391 53.8103Z" fill="#FFCD40"/>
<path d="M31.9996 46.5682C39.9788 46.5682 46.545 40.084 46.545 31.9998C46.545 23.9156 40.0619 17.4314 31.9996 17.4314C24.0203 17.4314 17.4541 23.9156 17.4541 31.9998C17.4541 40.084 23.9372 46.5682 31.9996 46.5682Z" fill="#F1F1F1"/>
<path d="M31.9996 43.6191C38.3996 43.6191 43.636 38.398 43.636 31.998C43.636 25.598 38.3996 20.377 31.9996 20.377C25.5996 20.377 20.3633 25.598 20.3633 31.998C20.3633 38.398 25.5996 43.6191 31.9996 43.6191Z" fill="#4285F4"/>
</g>
</svg>

<svg width="64" height="64" fill="none" xmlns="http://www.w3.org/2000/svg"><mask id="a" mask-type="alpha" maskUnits="userSpaceOnUse" x="0" y="0" width="64" height="64"><circle cx="32" cy="32" r="32" fill="#C4C4C4"/></mask><g mask="url(#a)"><path d="M5.153 0v39.242H19.45L32 17.432h31.917V0H5.153zm0 0v39.242H19.45L32 17.432h31.917V0H5.153z" fill="#DB4437"/><path d="M.083 64h30.42l14.13-14.148v-10.61H19.45L.083 5.979v58.02zm0 0h30.42l14.13-14.148v-10.61H19.45L.083 5.979v58.02z" fill="#0F9D58"/><path d="m32 17.431 12.55 21.81L30.42 64h33.497V17.43H32zm4.24 36.38L30.42 64h33.497V17.43H32l12.55 21.81-8.31 14.57z" fill="#FFCD40"/><path d="M32 46.568c7.979 0 14.545-6.484 14.545-14.568A14.514 14.514 0 0 0 32 17.43c-7.98 0-14.546 6.485-14.546 14.569A14.514 14.514 0 0 0 32 46.568z" fill="#F1F1F1"/><path d="M32 43.62c6.4 0 11.636-5.222 11.636-11.622 0-6.4-5.236-11.621-11.636-11.621-6.4 0-11.637 5.221-11.637 11.621S25.6 43.619 32 43.619z" fill="#4285F4"/></g></svg>
